bluetooth-audio.svg

<svg fill="currentColor" viewBox="0 0 24 24"><path d="M12.88 16.29 11 18.17v-3.76m0-8.58 1.88 1.88L11 9.58m4.71-1.87L10 2H9v7.58L4.41 5 3 6.41 8.59 12 3 17.58 4.41 19 9 14.41V22h1l5.71-5.71-4.3-4.29m8.12-5.29L18.26 8c.63 1.18.99 2.55.99 4s-.36 2.82-.99 4l1.2 1.22A9.9 9.9 0 0 0 21 11.91c0-1.91-.54-3.68-1.47-5.2M14.24 12l2.32 2.33c.28-.73.44-1.51.44-2.33s-.16-1.6-.43-2.32z"/></svg>

<svg  viewBox="0 0 24 24" fill="currentColor"><path  d="M12.88,16.29L11,18.17V14.41M11,5.83L12.88,7.71L11,9.58M15.71,7.71L10,2H9V9.58L4.41,5L3,6.41L8.59,12L3,17.58L4.41,19L9,14.41V22H10L15.71,16.29L11.41,12M19.53,6.71L18.26,8C18.89,9.18 19.25,10.55 19.25,12C19.25,13.45 18.89,14.82 18.26,16L19.46,17.22C20.43,15.68 21,13.87 21,11.91C21,10 20.46,8.23 19.53,6.71M14.24,12L16.56,14.33C16.84,13.6 17,12.82 17,12C17,11.18 16.84,10.4 16.57,9.68L14.24,12Z"/></svg>
